app/img/layout/green.svg

<svg width="81" height="69" viewBox="0 0 81 69" fill="none" xmlns="http://www.w3.org/2000/svg">
<path d="M80.3207 4.87572L80.2417 41.2943C80.2231 48.5529 79.4273 55.5105 78.029 60.6393C76.6308 65.7681 74.7444 68.6488 72.7842 68.6488H1.30502C0.980417 68.6488 0.670145 68.1713 0.442458 67.3213C0.21477 66.4714 0.0883203 65.3187 0.0909262 64.1167L0.169882 27.6981C0.185611 20.4432 0.978991 13.4855 2.37549 8.35556C3.77199 3.22561 5.65721 0.343628 7.61643 0.343628L79.0956 0.343628C79.4212 0.343581 79.7327 0.819772 79.9621 1.66856C80.1915 2.51735 80.3204 3.67003 80.3207 4.87572Z" fill="#39B54A"/>
</svg>

<svg width="81" height="69" fill="none" xmlns="http://www.w3.org/2000/svg"><path d="M80.32 4.876l-.078 36.418c-.019 7.259-.815 14.217-2.213 19.345-1.398 5.13-3.285 8.01-5.245 8.01H1.305c-.325 0-.635-.478-.863-1.328-.227-.85-.354-2.002-.351-3.204L.17 27.698c.016-7.255.809-14.213 2.205-19.342C3.772 3.226 5.657.344 7.616.344h71.48c.325 0 .637.476.866 1.325.23.848.358 2.001.359 3.207z" fill="#39B54A"/></svg>
